img/room_card-option1.svg

<svg width="20" height="20" viewBox="0 0 20 20" fill="none" xmlns="http://www.w3.org/2000/svg">
<path d="M17.971 15.6449L16.3957 14.0712C16.1902 13.866 15.8649 13.866 15.6594 14.0712C15.454 14.2764 15.454 14.6014 15.6594 14.8067L16.3443 15.4908L4.47774 15.4909V3.65394L5.16261 4.3381C5.26533 4.44072 5.40233 4.49202 5.53933 4.49202C5.67633 4.49202 5.81333 4.44072 5.91604 4.3381C6.12149 4.13287 6.12149 3.80786 5.91604 3.60263L4.34069 2.02892C4.13524 1.82369 3.80989 1.82369 3.60444 2.02892L2.02908 3.60263C1.82364 3.80786 1.82364 4.13287 2.02908 4.3381C2.23453 4.54334 2.55988 4.54333 2.76533 4.3381L3.45021 3.65394V16.0212C3.45021 16.312 3.68993 16.5514 3.981 16.5514H16.327L15.6421 17.2356C15.4367 17.4408 15.4367 17.7658 15.6421 17.9711C15.7449 18.0737 15.8819 18.125 16.0188 18.125C16.1558 18.125 16.2928 18.0737 16.3956 17.9711L17.9709 16.3974C18.1764 16.1751 18.1764 15.8501 17.9709 15.6448L17.971 15.6449Z" fill="#FC6733"/>
<path d="M7.78261 3.51751H8.31363C8.60484 3.51751 8.84466 3.27804 8.84466 2.98727C8.84466 2.69649 8.60483 2.45703 8.31363 2.45703H7.78261C7.49128 2.45703 7.25146 2.6965 7.25146 2.98727C7.25146 3.27805 7.49129 3.51751 7.78261 3.51751Z" fill="#FC6733"/>
<path d="M10.4536 3.51751H11.3098C11.6009 3.51751 11.8406 3.27804 11.8406 2.98727C11.8406 2.69649 11.6009 2.45703 11.3098 2.45703H10.4536C10.1626 2.45703 9.92285 2.6965 9.92285 2.98727C9.92285 3.27805 10.1626 3.51751 10.4536 3.51751Z" fill="#FC6733"/>
<path d="M13.4678 3.51751H14.324C14.6151 3.51751 14.8548 3.27804 14.8548 2.98727C14.8548 2.69649 14.6151 2.45703 14.324 2.45703H13.4678C13.1767 2.45703 12.937 2.6965 12.937 2.98727C12.937 3.27805 13.1767 3.51751 13.4678 3.51751Z" fill="#FC6733"/>
<path d="M16.4641 3.51751C16.4641 3.80829 16.704 4.04775 16.9952 4.04775C17.2864 4.04775 17.5262 3.80828 17.5262 3.51751V2.98727C17.5262 2.69649 17.2864 2.45703 16.9952 2.45703H16.4641C16.1729 2.45703 15.9331 2.6965 15.9331 2.98727C15.9331 3.27805 16.19 3.51751 16.4641 3.51751Z" fill="#FC6733"/>
<path d="M17.5264 5.65524C17.5264 5.36446 17.2866 5.125 16.9954 5.125C16.7042 5.125 16.4644 5.36447 16.4644 5.65524V6.51051C16.4644 6.80129 16.7042 7.04075 16.9954 7.04075C17.2866 7.04075 17.5264 6.80128 17.5264 6.51051V5.65524Z" fill="#FC6733"/>
<path d="M17.5264 8.66598C17.5264 8.3752 17.2866 8.13574 16.9954 8.13574C16.7042 8.13574 16.4644 8.37521 16.4644 8.66598V9.52126C16.4644 9.81203 16.7042 10.0515 16.9954 10.0515C17.2866 10.0515 17.5264 9.81202 17.5264 9.52126V8.66598Z" fill="#FC6733"/>
<path d="M16.9954 11.146C16.7042 11.146 16.4644 11.3855 16.4644 11.6762V12.2065C16.4644 12.4973 16.7042 12.7367 16.9954 12.7367C17.2866 12.7367 17.5264 12.4972 17.5264 12.2065V11.6762C17.5264 11.3684 17.2866 11.146 16.9954 11.146Z" fill="#FC6733"/>
<path d="M7.56009 12.9423H13.3992C13.6903 12.9423 13.93 12.7028 13.93 12.412V6.57907C13.93 6.28829 13.6903 6.04883 13.3992 6.04883H7.56009C7.26901 6.04883 7.0293 6.2883 7.0293 6.57907V12.412C7.0293 12.7028 7.26902 12.9423 7.56009 12.9423ZM8.07383 7.10931H12.8684V11.8988H8.07383V7.10931Z" fill="#FC6733"/>
</svg>

<svg width="20" height="20" viewBox="0 0 20 20" fill="none" xmlns="http://www.w3.org/2000/svg"><path d="M17.971 15.645l-1.575-1.574a.517.517 0 0 0-.737 0 .516.516 0 0 0 0 .736l.685.684H4.478V3.654l.685.684c.102.103.24.154.376.154a.531.531 0 0 0 .377-.154.516.516 0 0 0 0-.735L4.341 2.029a.517.517 0 0 0-.737 0L2.03 3.603a.516.516 0 0 0 0 .735c.206.205.53.205.736 0l.685-.684V16.02c0 .291.24.53.531.53h12.346l-.685.685a.516.516 0 0 0 0 .735c.103.103.24.154.377.154a.532.532 0 0 0 .377-.154l1.575-1.574a.536.536 0 0 0 0-.752zM7.783 3.518h.53c.292 0 .532-.24.532-.53a.533.533 0 0 0-.531-.531h-.531a.533.533 0 0 0-.532.53c0 .291.24.53.532.53zm2.671 0h.856c.29 0 .53-.24.53-.53a.533.533 0 0 0-.53-.531h-.856a.534.534 0 0 0-.531.53c0 .291.24.53.53.53zm3.014 0h.856c.291 0 .53-.24.53-.53a.532.532 0 0 0-.53-.531h-.856a.534.534 0 0 0-.531.53c0 .291.24.53.53.53zm2.996 0c0 .29.24.53.531.53.291 0 .531-.24.531-.53v-.53a.533.533 0 0 0-.53-.531h-.532a.533.533 0 0 0-.53.53c0 .291.256.53.53.53zm1.062 2.137c0-.29-.24-.53-.53-.53a.533.533 0 0 0-.532.53v.856c0 .29.24.53.531.53.292 0 .531-.24.531-.53v-.856zm0 3.011c0-.29-.24-.53-.53-.53a.533.533 0 0 0-.532.53v.855c0 .291.24.53.531.53a.532.532 0 0 0 .531-.53v-.855zm-.531 2.48a.533.533 0 0 0-.53.53v.53c0 .291.24.53.53.53a.532.532 0 0 0 .531-.53v-.53c0-.308-.24-.53-.53-.53z" fill="#FC6733"/><path d="M7.56 12.942h5.84c.29 0 .53-.24.53-.53V6.579c0-.29-.24-.53-.53-.53H7.56c-.291 0-.53.24-.53.53v5.833c0 .29.239.53.53.53zm.514-5.833h4.794v4.79H8.074v-4.79z" fill="#FC6733"/></svg>
